X:1
T:Title
%%score { 1 | 2 }
L:1/8
M:3/4
K:Ab
V:1 treble nm="Grand Piano"
V:2 bass 
V:1
 z2 z2[Q:1/4=92] [CE]2 | [Ec]>[Ec] [Ec]3 [CE] | [DF]>[FA] [FA]3 c | B3 B [EA]>B |[M:2/4] c4 | %5
[M:1/4] [CE]2 |[M:3/4] [Ec]>[Ec] [Ec]3 [CE] | [DF]>[FA] [FA]3 c | B3 A c>B |[M:2/4] [CA]4 | %10
[M:1/4] [E,E]2 |[M:3/4] [Gd]>[Gd] [Gd]3 c | B>A c3 c | e3 [CEA] [B,EG]>[A,=DF] |[M:2/4] [G,E]4 | %15
[M:1/4] [G,E]2 |[M:3/4] [Ec]>[DB] [CA]3 [_Gc] | [Fe]>[Fd] [Fd]3 [FB] | A3 c c>B |[M:2/4] [CA]4 |] %20
V:2
 z2 z2 [A,,A,]2 | [A,,A,]>[A,,A,] [A,,A,]3 [A,,A,] | [D,A,]>[D,A,] [D,A,]3 [A,E] | %3
 [E,G,E]3 [E,G,E] [C,A,]>[E,G,E] |[M:2/4] [A,E]4 |[M:1/4] [A,,A,]2 | %6
[M:3/4] [A,,A,]>[A,,A,] [A,,A,]3 [A,,A,] | [D,A,]>[D,D] [D,D]3 [A,E] | [E,G,D]3 [E,C] [E,E]>[E,D] | %9
[M:2/4] [A,,E,]4 |[M:1/4] z2 |[M:3/4] [E,B,]>[E,B,] [E,B,]3 [A,E] | [A,DE]>[A,CE] [A,E]3 [A,E] | %13
 [A,CE]3 A,, B,,>B,, |[M:2/4] E,4 |[M:1/4] E,2 |[M:3/4] [A,,A,]>[A,,E,] [A,,E,]3 [A,,A,] | %17
 [D,A,]>[D,A,] [D,A,]3 [D,D] | [E,CE]3 [E,A,E] [E,A,E]>[E,G,D] |[M:2/4] [A,,E,]4 |] %20

